style-guide/assets/xd-icons-flag-tiny.svg

<svg viewBox="0 0 12 12" xmlns="http://www.w3.org/2000/svg">
  <path d="M3 7h5L6.59 5.707A.957.957 0 0 1 6.27 5c0-.256.108-.512.32-.707L8 3H3v4zm-1 5a1 1 0 0 1-1-1V1a1 1 0 1 1 2 0h7.03l.003.001h.017a1 1 0 0 1 .942.872v.001c.008.064.01.128.006.191v.002a.997.997 0 0 1-.283.631v.001l-.002.002-.001.001-.001.001-.002.002-.002.002L8.414 5l2.293 2.293.003.003.001.001.001.001.001.001.002.002v.001a.997.997 0 0 1 .283.631v.002a1.02 1.02 0 0 1-.006.191v.001a.996.996 0 0 1-.315.609 1 1 0 0 1-.627.263h-.017L10.03 9H3v2a1 1 0 0 1-1 1z"/>
</svg>

<?xml version="1.0" encoding="UTF-8"?>
<svg width="12px" height="12px" viewBox="0 0 12 12" version="1.1" xmlns="http://www.w3.org/2000/svg" xmlns:xlink="http://www.w3.org/1999/xlink">
    <!-- Generator: Sketch 51.3 (57544) - http://www.bohemiancoding.com/sketch -->
    <title>flag</title>
    <desc>Created with Sketch.</desc>
    <defs></defs>
    <g id="flag" stroke="none" stroke-width="1" fill="none" fill-rule="evenodd">
        <path d="M3,7 L8,7 L6.59027475,5.707 C6.37767117,5.512 6.27082425,5.256 6.27082425,5 C6.27082425,4.744 6.37767117,4.488 6.59027475,4.293 L8,3 L3,3 L3,7 Z M2,12 C1.448,12 1,11.553 1,11 L1,1 C1,0.447 1.448,0 2,0 C2.552,0 3,0.447 3,1 L10,1 L10.003,1 L10.006,1 L10.009,1 L10.012,1 C10.013,0.999 10.014,0.999 10.016,1 L10.018,1 L10.021,1 L10.024,1 L10.027,1 L10.03,1 C10.031,1 10.032,1.001 10.033,1.001 L10.036,1.001 L10.037,1.001 L10.039,1.001 L10.041,1.001 L10.042,1.001 L10.047,1.001 L10.049,1.001 L10.05,1.001 C10.276,1.013 10.499,1.1 10.677,1.264 C10.704,1.289 10.729,1.315 10.754,1.343 C10.888,1.497 10.968,1.682 10.992,1.873 C10.992,1.873 10.992,1.873 10.992,1.874 C11,1.938 11.002,2.002 10.998,2.065 L10.998,2.066 C10.998,2.066 10.998,2.067 10.998,2.067 C10.982,2.297 10.888,2.521 10.715,2.698 L10.715,2.699 C10.714,2.699 10.714,2.7 10.713,2.701 C10.713,2.701 10.712,2.702 10.712,2.702 C10.712,2.702 10.711,2.703 10.711,2.703 C10.711,2.703 10.709,2.706 10.709,2.705 C10.708,2.706 10.708,2.706 10.707,2.707 L8.414,5 L10.707,7.293 C10.708,7.294 10.706,7.291 10.71,7.296 C10.71,7.296 10.711,7.297 10.711,7.297 C10.711,7.297 10.712,7.298 10.712,7.298 C10.712,7.298 10.713,7.299 10.713,7.299 C10.714,7.3 10.714,7.301 10.715,7.301 L10.715,7.302 C10.888,7.479 10.982,7.703 10.998,7.933 C10.998,7.933 10.998,7.934 10.998,7.934 L10.998,7.935 C11.002,7.998 11,8.062 10.992,8.126 C10.992,8.127 10.992,8.127 10.992,8.127 C10.968,8.318 10.888,8.503 10.754,8.657 C10.729,8.685 10.704,8.711 10.677,8.736 C10.499,8.9 10.276,8.987 10.05,8.999 L10.049,8.999 L10.047,8.999 L10.042,8.999 L10.04,8.999 L10.039,8.999 L10.037,8.999 L10.033,8.999 C10.032,8.999 10.031,9 10.03,9 L10.027,9 L10.024,9 L10.021,9 L10.018,9 L10.015,9 L10.012,9 L10.009,9 L10.006,9 L10.003,9 L10,9 L3,9 L3,11 C3,11.553 2.552,12 2,12 Z" id="Fill-1" fill="#000000"></path>
    </g>
</svg>
